public/icons/flags/tr.svg

<svg viewBox="0 0 20 14" fill="none" xmlns="http://www.w3.org/2000/svg">
<g>
<path d="M21.8211 -1.37805H-2.11719V15.3792H21.8211V-1.37805Z" fill="#E30A17"/>
<path d="M6.36024 11.1897C8.56392 11.1897 10.3504 9.31392 10.3504 7.00006C10.3504 4.68619 8.56392 2.81042 6.36024 2.81042C4.15656 2.81042 2.37012 4.68619 2.37012 7.00006C2.37012 9.31392 4.15656 11.1897 6.36024 11.1897Z" fill="white"/>
<path d="M7.3581 10.3508C9.12063 10.3508 10.5494 8.85058 10.5494 6.99991C10.5494 5.14925 9.12063 3.64899 7.3581 3.64899C5.59556 3.64899 4.16675 5.14925 4.16675 6.99991C4.16675 8.85058 5.59556 10.3508 7.3581 10.3508Z" fill="#E30A17"/>
<path d="M9.51978 7.0001L13.1284 8.23158L10.8976 5.00769V8.99251L13.1284 5.76862L9.51978 7.0001Z" fill="white"/>
</g>
</svg>

<svg viewBox="0 0 20 14" fill="none" xmlns="http://www.w3.org/2000/svg"><path d="M21.821-1.378H-2.117v16.757H21.82V-1.378Z" fill="#E30A17"/><path d="M6.36 11.19c2.204 0 3.99-1.876 3.99-4.19 0-2.314-1.786-4.19-3.99-4.19-2.203 0-3.99 1.876-3.99 4.19 0 2.314 1.787 4.19 3.99 4.19Z" fill="#fff"/><path d="M7.358 10.35c1.763 0 3.191-1.5 3.191-3.35S9.121 3.649 7.36 3.649c-1.763 0-3.192 1.5-3.192 3.35 0 1.852 1.429 3.352 3.191 3.352Z" fill="#E30A17"/><path d="m9.52 7 3.608 1.232-2.23-3.224v3.985l2.23-3.224L9.52 7Z" fill="#fff"/></svg>
